X: 24
T: Griffenfeldt
R: reel
B: PC3 p.87
S: Fiddle Hell Online 2021-10-13 Portland Collection Jam handout
Z: 2022 John Chambers <jc:trillian.mit.edu>
M: C|
L: 1/8
K: G
%%continueall
"^A"|: D2 |\
"G"G2Bc d2fd | "Gm"ec_BA "G"G3G | "F"GAF2 FGAc | "C"ABG2 G2D2 |
"G"G2Bc d2fd | "Gm"ec_BA "G"G3G | "F"GAF2 FGAc | "G"ABG2 G2 :|
"^B"|: d2 |\
"G"g2g2- g2ag | f2d2 d3e | "F"dcBA  Bcdf | "C"e2d2 d2Bd |
"G"g2g2- g2ag | f2d2 d3e | "F"dc_BA BAGF | "G"G2GF G2 :|


